!!!!SEGMENT: pl-sa--l-1636--097_anonim--ave-maris-stella.krn
!!!cenid: 17xx:804
!!!COM: Anonim
!!!COM-rismid: pe30004985
!!!CDT:
!!!CNT:
!!!OTL: Ave Maris stella
!!!PDT:
!!!AGN: Sacred
!!!SMS-siglum: PL-SA
!!!SMS-shelfmark: L 1636
!!!SMS-shelfwork: 097 W
!!!SMS-variant:
!!!SMS-altvar:
!!!NIFC-rismid: 1001087452
!!!system-decoration: {(s1,s2)}
**kern	**kern
*part1	*part1
*staff2	*staff1
*Iempty	*Iorgan
*	*I"Organo
*clefF4	*clefC1
*k[]	*k[]
*a:	*a:
*M2/2	*M2/2
*met(c|)	*met(c|)
=1	=1
*^	*^
*2\right	*	*2\right	*
!LO:TX:a:t=P:wszystkie nuty mają caudy z prawej strony:problem	!	!LO:TX:a:t=P:wszystkie nuty mają caudy z prawej strony:problem	!
!	!	!LO:TX:b:Bi:t=Ave Maris ſtella	!
!	!	!	!LO:TX:b:t=P:w źródle niejasna wysokość dźwięku:problem
2AA/	2ryy	4a/	4a\
!	!	!	!LO:TX:b:t=P:w źródle niejasna wysokość dźwięku:problem
.	.	4b/	4b\
!LO:TX:b:t=P:note position:problem	!	!	!
2A\	8AA\L	2cc/	2a\
.	8BB\	.	.
.	8C\	.	.
.	8D\J	.	.
=2	=2	=2	=2
2E/	2EE/	2b/	2g#X\
2A/	2AA/	2cc/	2a/
*v	*v	*	*
=3	=3	=3
8B\L	2dd/	2b/
8A\J	.	.
4G#X\	.	.
4A\	2cc/	2a/
8C/L	.	.
8D/J	.	.
=4	=4	=4
1E 1EE	1b	1g#X
=5	=5	=5
!	!	!LO:TX:b:t=P:note position:problem
4C/	2ee 2cc/	1g
4D/	.	.
4E\	2ee 2cc/	.
4F\	.	.
*	*v	*v
=6	=6
*^	*
8G\L	2ryy	2dd 2b/
8A\	.	.
8B\	.	.
8G#X\J	.	.
2A/	8AA\L	2cc 2a/
.	8BB\	.
.	8C\	.
.	8D\J	.
*v	*v	*
=7	=7
4E\	2b 2g#X/
4EE/	.
!	!LO:TX:b:t=P:w źródle drugi dźwięku zamazany:problem
8A\L	2cc 2a/
8G\	.
8F\	.
8E\J	.
=8	=8
*	*^
!	!LO:TX:a:t=P:note position:problem	!
4D/	[>2dd/	4a\
4G\	.	8.bt>\L
.	.	16a\Jk
2GG/	2dd/]	2b 2g\
!!LO:LB:g=original
=9	=9	=9
2GG/	2dd/	2b\
4G#X\	4dd/	4b\
4A\	4cc/	4a\
=10	=10	=10
4E\	2b/	2g#X\
4EE/	.	.
8A\L	2cc/ 2a/	2ryy
8G\	.	.
8F\	.	.
8E\J	.	.
=11	=11	=11
!	!	!LO:TX:a:t=P:w źródle dźwięki 4f# i 4g poprawione przez skryptora z ósemek na ćwierćnuty:problem
4D\	2dd/	4f#X\
4E\	.	4g\
4F\	2cc/	2a\
8C/L	.	.
8D/J	.	.
=12	=12	=12
*^	*	*
1E	2EE/	1b 1g#X 1e	1ryy
.	2ryy	.	.
*v	*v	*	*
=13	=13	=13
!	!	!LO:TX:b:t=P:note position:problem
4C/	2ee 2cc/	1g
4D/	.	.
4E\	2ee 2cc/	.
4F\	.	.
=14	=14	=14
*^	*	*
8G\L	2ryy	2dd/	2b\
8A\	.	.	.
8B\	.	.	.
8G#X\J	.	.	.
!LO:TX:a:t=P:w źródle nadnutą 2A tajemniczny znak:problem	!	!	!
2A/	8AA\L	2cc/	2a/
.	8BB\	.	.
.	8C\	.	.
.	8D\J	.	.
=15	=15	=15	=15
!LO:TX:a:t=P:w źródle nad nutami 4B i 4G# tak jakby belka:problem	!	!	!
!LO:TX:a:t=P:mixed beam:problem	!	!	!
4B\	8E\L	2b/	2g#X/
.	8D\	.	.
4G#X\	8C\	.	.
.	8BB\J	.	.
8A\L	2ryy	2cc/ 2a/	2ryy
!LO:SIC:s=8G:v	!	!	!
8G#\	.	.	.
8F\	.	.	.
8E\J	.	.	.
*v	*v	*	*
=16	=16	=16
4D/	2dd/	4f#X\
4E\	.	4g#X\
4F\	2cc/	2a\
4C/	.	.
=17	=17	=17
*	*	*^
!	!LO:TX:a:t=P:note position:problem	!	!
4D/	1b	2ryy	8a\L
.	.	.	8g\J
4BB/	.	.	4f\
4E\	.	2g#X/	4e\
4EE/	.	.	4d\
*	*	*v	*v
*	*v	*v
=18	=18
!	!LO:SIC:s=1c#:v
1A 1E 1C# 1AA	1a 1e 1c
==	==
*-	*-
!!title: @{OTL};
!!!RDF**kern: > = above
!!!RDF**kern: < = below
!!!RDF**kern: i = editorial accidental
!!!EED: Wojciech Jakubiak-Danek
!!!EST: 2020-12-08
!!!URL-scan: http://repozytorium.nifc.pl/skany/pl-sa-nut--l1636
!!!ONB-nifc: 45r, skan 0040, s. 7-8
!!!ENC: Tomasz Grochalski
!!!END: 2020-06-13
